Resources/Day4Night.cube
LUT_3D_SIZE 6
0.000000 0.000000 0.000000
0.032530 0.011250 0.014767
0.054866 0.018887 0.024765
0.074837 0.025628 0.033507
0.092762 0.031868 0.041576
0.110219 0.037785 0.049182
0.035340 0.055046 0.051802
0.056703 0.056333 0.053166
0.076499 0.060454 0.058873
0.094248 0.065079 0.065302
0.111830 0.069880 0.071794
0.130929 0.074789 0.078174
0.059622 0.093504 0.088173
0.078401 0.093427 0.087206
0.095797 0.096083 0.090570
0.113484 0.099690 0.095173
0.133203 0.103816 0.100287
0.154259 0.108323 0.105651
0.080226 0.130022 0.122071
0.096927 0.129305 0.119752
0.114466 0.131663 0.122025
0.134809 0.135450 0.126018
0.156303 0.140267 0.130918
0.176176 0.145891 0.136908
0.099114 0.168459 0.162159
0.114741 0.168762 0.158876
0.135153 0.171495 0.160351
0.157350 0.175592 0.164017
0.178102 0.180679 0.168924
0.201034 0.186210 0.174522
0.117128 0.210891 0.204299
0.132792 0.211994 0.200418
0.155086 0.214767 0.201118
0.176923 0.218953 0.204055
0.201936 0.224330 0.208465
0.229844 0.230226 0.213780
0.012356 0.012251 0.041075
0.041418 0.020582 0.049991
0.063356 0.027496 0.057847
0.082701 0.033804 0.065254
0.100387 0.039742 0.072276
0.118309 0.045475 0.078976
0.046914 0.066581 0.090414
0.067017 0.066681 0.088735
0.085481 0.070020 0.092289
0.102838 0.074118 0.097041
0.121041 0.078570 0.102330
0.141219 0.083198 0.107812
0.070649 0.104841 0.126379
0.087938 0.103902 0.122915
0.104933 0.105977 0.124959
0.123495 0.109237 0.128860
0.144362 0.113301 0.134019
0.164483 0.117970 0.139847
0.090288 0.143065 0.166736
0.105973 0.142142 0.162222
0.124223 0.144381 0.163274
0.145897 0.148166 0.166679
0.166368 0.153104 0.171414
0.187152 0.158815 0.176986
0.109035 0.183206 0.209415
0.124392 0.183637 0.204175
0.145661 0.186188 0.204387
0.166823 0.189977 0.207243
0.188932 0.194819 0.211665
0.214229 0.200102 0.216934
0.126682 0.229125 0.256726
0.140717 0.230035 0.250651
0.161005 0.232468 0.250118
0.185816 0.236436 0.252478
0.214671 0.241451 0.256512
0.245654 0.247201 0.261670
0.020723 0.020545 0.069523
0.048487 0.028020 0.077437
0.070265 0.034659 0.084621
0.089203 0.040799 0.091377
0.107016 0.046641 0.097865
0.125655 0.052335 0.104227
0.055344 0.074998 0.120551
0.074958 0.074966 0.117994
0.092754 0.077985 0.121126
0.110381 0.081814 0.125828
0.129523 0.086051 0.131406
0.150397 0.090621 0.137594
0.078656 0.114207 0.163519
0.095386 0.112974 0.158889
0.112859 0.114890 0.160381
0.132721 0.118142 0.164147
0.153975 0.122391 0.169115
0.173488 0.127547 0.174966
0.098808 0.154502 0.207642
0.114019 0.153985 0.201797
0.133177 0.156631 0.202052
0.154838 0.160431 0.205081
0.175079 0.165270 0.209682
0.197671 0.170589 0.215224
0.117459 0.196855 0.256342
0.132375 0.197529 0.249439
0.153075 0.199846 0.248815
0.174660 0.203427 0.251282
0.199641 0.208084 0.255593
0.227504 0.213331 0.261002
0.134976 0.246213 0.306888
0.148504 0.246456 0.299940
0.165620 0.249513 0.298734
0.194384 0.253373 0.300538
0.227582 0.258174 0.304195
0.260672 0.263783 0.308933
0.028026 0.027841 0.094330
0.054919 0.034798 0.101592
0.076456 0.041233 0.108670
0.095069 0.047250 0.115552
0.113273 0.053053 0.122546
0.132972 0.058707 0.129535
0.062557 0.082131 0.151026
0.081626 0.082214 0.148256
0.099280 0.085055 0.151427
0.117437 0.088791 0.156398
0.137840 0.093014 0.162182
0.158360 0.097656 0.168508
0.085909 0.122534 0.198871
0.102038 0.121559 0.193430
0.120185 0.123696 0.194556
0.141186 0.127187 0.198296
0.161798 0.131753 0.203460
0.181904 0.137175 0.209522
0.106306 0.164740 0.249329
0.121229 0.165035 0.242362
0.141100 0.167893 0.242117
0.162193 0.171540 0.245036
0.183843 0.176208 0.249823
0.208486 0.181332 0.255804
0.124962 0.210056 0.301592
0.139236 0.210816 0.294273
0.158175 0.213295 0.293286
0.182176 0.216716 0.295429
0.210446 0.221236 0.299419
0.241103 0.226446 0.304611
0.142448 0.262067 0.353035
0.155741 0.262067 0.345856
0.170524 0.265694 0.344259
0.203397 0.269706 0.345721
0.240912 0.274325 0.348953
0.274867 0.279833 0.353361
0.034700 0.034550 0.118045
0.060976 0.041136 0.125553
0.082055 0.047389 0.133376
0.100660 0.053345 0.141157
0.119444 0.059106 0.148967
0.139952 0.064872 0.156650
0.068867 0.088687 0.180657
0.087481 0.088958 0.178022
0.105234 0.091765 0.181288
0.124312 0.095477 0.186489
0.145590 0.099739 0.192502
0.165629 0.104576 0.199429
0.092612 0.130133 0.235306
0.108609 0.129711 0.229315
0.127157 0.132287 0.230239
0.148981 0.136118 0.234114
0.169011 0.141130 0.239631
0.190349 0.146869 0.246270
0.113133 0.174541 0.290216
0.128214 0.175520 0.283146
0.147889 0.178462 0.282737
0.168970 0.182058 0.285603
0.192655 0.186627 0.290323
0.219972 0.191610 0.296091
0.131835 0.223013 0.343812
0.145607 0.223542 0.336572
0.162070 0.226387 0.335308
0.189679 0.230017 0.337282
0.221571 0.234511 0.341040
0.254292 0.239736 0.345995
0.149349 0.276608 0.396112
0.162457 0.276810 0.388739
0.177657 0.280933 0.386975
0.214655 0.285055 0.388081
0.254340 0.289639 0.391122
0.288424 0.295077 0.395419
0.040963 0.040809 0.143089
0.066690 0.047144 0.151015
0.087266 0.053331 0.159140
0.105937 0.059255 0.167237
0.125392 0.065111 0.175357
0.146682 0.070906 0.183638
0.074782 0.094640 0.211419
0.092958 0.095188 0.208973
0.111118 0.098041 0.212470
0.131369 0.101820 0.218019
0.152982 0.106208 0.224699
0.172805 0.111087 0.232243
0.098821 0.137670 0.271992
0.114799 0.137813 0.266171
0.134042 0.141032 0.267104
0.155587 0.145125 0.271121
0.175902 0.150353 0.276786
0.199397 0.156132 0.283472
0.119477 0.184258 0.328971
0.134361 0.185701 0.322074
0.153108 0.188665 0.321659
0.175552 0.192300 0.324442
0.201991 0.196866 0.329054
0.231552 0.201890 0.334752
0.138256 0.235473 0.383595
0.151894 0.235668 0.376443
0.168236 0.239037 0.375127
0.198153 0.242863 0.376870
0.233572 0.247503 0.380547
0.267111 0.252815 0.385260
0.155787 0.290383 0.437252
0.168796 0.290984 0.430001
0.186536 0.295414 0.427978
0.227200 0.299692 0.429030
0.267916 0.304145 0.431821
0.301633 0.309635 0.436043
