Resources/Day4Night.cube
LUT_3D_SIZE 16
0.000000 0.000000 0.000000
0.014328 0.004957 0.006507
0.024029 0.008313 0.010912
0.032530 0.011250 0.014767
0.040368 0.013943 0.018305
0.047757 0.016472 0.021617
0.054866 0.018887 0.024765
0.061761 0.021205 0.027776
0.068436 0.023452 0.030690
0.074837 0.025628 0.033507
0.080977 0.027752 0.036254
0.086935 0.029828 0.038938
0.092762 0.031868 0.041576
0.098552 0.033868 0.044154
0.104315 0.035840 0.046688
0.110219 0.037785 0.049182
0.015576 0.024121 0.022695
0.024810 0.024656 0.023288
0.033209 0.026353 0.025733
0.041007 0.028237 0.028436
0.048383 0.030167 0.031178
0.055479 0.032104 0.033894
0.062386 0.034031 0.036567
0.069045 0.035941 0.039196
0.075448 0.037833 0.041792
0.081569 0.039713 0.044348
0.087512 0.041568 0.046859
0.093334 0.043410 0.049348
0.099140 0.045238 0.051811
0.104890 0.047049 0.054243
0.110850 0.048855 0.056632
0.116817 0.050665 0.059008
0.026128 0.040516 0.038120
0.034073 0.040401 0.037697
0.041705 0.041427 0.039120
0.049008 0.042805 0.041083
0.056061 0.044333 0.043258
0.062953 0.045941 0.045526
0.069594 0.047588 0.047832
0.075984 0.049270 0.050179
0.082071 0.050964 0.052529
0.088010 0.052660 0.054872
0.093814 0.054361 0.057203
0.099623 0.056055 0.059541
0.105380 0.057751 0.061868
0.111362 0.059475 0.064170
0.117397 0.061205 0.066460
0.123701 0.062939 0.068714
0.035340 0.055046 0.051802
0.042602 0.054651 0.050927
0.049743 0.055286 0.051725
0.056703 0.056333 0.053166
0.063549 0.057590 0.054913
0.070140 0.058984 0.056835
0.076499 0.060454 0.058873
0.082550 0.061970 0.060987
0.088452 0.063508 0.063133
0.094248 0.065079 0.065302
0.100056 0.066668 0.067474
0.105839 0.068268 0.069640
0.111830 0.069880 0.071794
0.117927 0.071510 0.073945
0.124281 0.073138 0.076069
0.130929 0.074789 0.078174
0.043781 0.068641 0.064625
0.050625 0.068101 0.063498
0.057436 0.068488 0.063880
0.064196 0.069298 0.064932
0.070722 0.070350 0.066358
0.077030 0.071543 0.068001
0.083040 0.072831 0.069774
0.088931 0.074193 0.071645
0.094688 0.075590 0.073561
0.100514 0.077036 0.075527
0.106327 0.078502 0.077523
0.112352 0.079987 0.079493
0.118519 0.081491 0.081460
0.124925 0.083016 0.083430
0.131666 0.084567 0.085392
0.138578 0.086132 0.087347
0.051831 0.081390 0.076762
0.058394 0.080781 0.075505
0.065013 0.080989 0.075573
0.071437 0.081616 0.076321
0.077669 0.082481 0.077451
0.083634 0.083510 0.078818
0.089480 0.084644 0.080336
0.095224 0.085859 0.081969
0.101055 0.087139 0.083672
0.106887 0.088467 0.085439
0.112916 0.089838 0.087231
0.119150 0.091247 0.089051
0.125582 0.092685 0.090888
0.132430 0.094160 0.092731
0.139418 0.095652 0.094574
0.146411 0.097200 0.096422
0.059622 0.093504 0.088173
0.066018 0.092860 0.086855
0.072286 0.092944 0.086711
0.078401 0.093427 0.087206
0.084290 0.094157 0.088093
0.090086 0.095058 0.089239
0.095797 0.096083 0.090570
0.101601 0.097199 0.092021
0.107457 0.098410 0.093562
0.113484 0.099690 0.095173
0.119778 0.101017 0.096822
0.126230 0.102391 0.098537
0.133203 0.103816 0.100287
0.140247 0.105268 0.102062
0.147300 0.106795 0.103855
0.154259 0.108323 0.105651
0.067116 0.105408 0.099262
0.073190 0.104733 0.097857
0.079148 0.104714 0.097531
0.084946 0.105094 0.097846
0.090664 0.105715 0.098551
0.096335 0.106527 0.099540
0.102108 0.107483 0.100721
0.107965 0.108577 0.102045
0.113975 0.109756 0.103472
0.120336 0.111033 0.104985
0.126812 0.112354 0.106544
0.133887 0.113750 0.108163
0.140988 0.115189 0.109895
0.148103 0.116720 0.111659
0.155086 0.118296 0.113463
0.161590 0.119948 0.115292
0.074009 0.117442 0.110416
0.079791 0.116706 0.108894
0.085482 0.116618 0.108421
0.091122 0.116922 0.108574
0.096757 0.117491 0.109148
0.102475 0.118288 0.110025
0.108352 0.119246 0.111102
0.114334 0.120331 0.112343
0.120762 0.121536 0.113697
0.127248 0.122821 0.115150
0.134450 0.124223 0.116674
0.141615 0.125691 0.118262
0.148790 0.127258 0.119995
0.155780 0.128891 0.121826
0.162334 0.130609 0.123703
0.168883 0.132386 0.125624
0.080226 0.130022 0.122071
0.085781 0.129216 0.120398
0.091329 0.129045 0.119740
0.096927 0.129305 0.119752
0.102594 0.129871 0.120214
0.108494 0.130674 0.120997
0.114466 0.131663 0.122025
0.120976 0.132801 0.123220
0.127552 0.134067 0.124575
0.134809 0.135450 0.126018
0.142037 0.136951 0.127579
0.149291 0.138563 0.129206
0.156303 0.140267 0.130918
0.162882 0.142065 0.132858
0.169484 0.143932 0.134843
0.176176 0.145891 0.136908
0.086471 0.142931 0.134616
0.091767 0.142217 0.132752
0.097150 0.142117 0.131931
0.102566 0.142433 0.131805
0.108435 0.143048 0.132168
0.114323 0.143864 0.132880
0.120926 0.144866 0.133860
0.127649 0.146006 0.135050
0.134982 0.147341 0.136421
0.142302 0.148787 0.137924
0.149628 0.150360 0.139541
0.156684 0.152060 0.141285
0.163354 0.153847 0.143099
0.170065 0.155729 0.145023
0.176846 0.157670 0.147046
0.183884 0.159663 0.149125
0.092865 0.155695 0.148172
0.098031 0.155135 0.146207
0.103206 0.155120 0.145252
0.108595 0.155677 0.145023
0.114177 0.156422 0.145261
0.120816 0.157239 0.145894
0.127669 0.158246 0.146811
0.135107 0.159438 0.147958
0.142531 0.160755 0.149277
0.149968 0.162203 0.150746
0.157043 0.163801 0.152376
0.163829 0.165505 0.154135
0.170666 0.167279 0.155977
0.177550 0.169121 0.157910
0.184748 0.171001 0.159906
0.192146 0.172917 0.161905
0.099114 0.168459 0.162159
0.104174 0.167960 0.160210
0.109288 0.168178 0.159197
0.114741 0.168762 0.158876
0.120836 0.169561 0.159033
0.127618 0.170515 0.159569
0.135153 0.171495 0.160351
0.142713 0.172718 0.161401
0.150241 0.174063 0.162605
0.157350 0.175592 0.164017
0.164189 0.177183 0.165525
0.171145 0.178918 0.167191
0.178102 0.180679 0.168924
0.185447 0.182477 0.170729
0.192970 0.184368 0.172625
0.201034 0.186210 0.174522
0.105237 0.181748 0.176051
0.110181 0.181401 0.174060
0.115337 0.181695 0.172991
0.120688 0.182477 0.172584
0.127427 0.183276 0.172645
0.134940 0.184137 0.173061
0.142559 0.185188 0.173753
0.150207 0.186407 0.174709
0.157323 0.187801 0.175858
0.164255 0.189344 0.177201
0.171281 0.190948 0.178640
0.178319 0.192655 0.180209
0.185852 0.194439 0.181876
0.193523 0.196298 0.183615
0.201778 0.198153 0.185400
0.210219 0.200080 0.187268
0.111233 0.195859 0.190007
0.116167 0.195652 0.187987
0.121167 0.196038 0.186878
0.127432 0.196682 0.186358
0.134005 0.197632 0.186335
0.141736 0.198492 0.186638
0.149567 0.199547 0.187275
0.156689 0.200774 0.188106
0.163696 0.202172 0.189175
0.170861 0.203741 0.190446
0.177991 0.205356 0.191840
0.185784 0.207120 0.193362
0.193592 0.208926 0.194983
0.202127 0.210827 0.196709
0.210730 0.212730 0.198461
0.219931 0.214702 0.200311
0.117128 0.210891 0.204299
0.121888 0.210677 0.202226
0.127287 0.211190 0.201033
0.132792 0.211994 0.200418
0.140375 0.212712 0.200300
0.147845 0.213633 0.200526
0.155086 0.214767 0.201118
0.162245 0.215976 0.201881
0.169611 0.217433 0.202908
0.176923 0.218953 0.204055
0.185029 0.220697 0.205400
0.193071 0.222472 0.206888
0.201936 0.224330 0.208465
0.210835 0.226297 0.210181
0.220294 0.228196 0.211915
0.229844 0.230226 0.213780
0.005442 0.005386 0.018061
0.018202 0.009073 0.021935
0.027604 0.012093 0.025328
0.035931 0.014813 0.028481
0.043649 0.017351 0.031477
0.050968 0.019760 0.034354
0.057999 0.022070 0.037134
0.064853 0.024303 0.039837
0.071412 0.026476 0.042483
0.077742 0.028593 0.045075
0.083780 0.030660 0.047612
0.089686 0.032689 0.050126
0.095470 0.034679 0.052602
0.101290 0.036644 0.055038
0.107105 0.038577 0.057438
0.113045 0.040505 0.059836
0.020698 0.028980 0.039264
0.029209 0.028983 0.038538
0.037204 0.030319 0.040060
0.044752 0.031961 0.042098
0.051977 0.033711 0.044319
0.058949 0.035506 0.046613
0.065752 0.037319 0.048944
0.072269 0.039139 0.051292
0.078535 0.040963 0.053644
0.084537 0.042763 0.055967
0.090425 0.044565 0.058299
0.096200 0.046351 0.060634
0.102011 0.048130 0.062947
0.107853 0.049919 0.065243
0.113774 0.051702 0.067517
0.119964 0.053486 0.069748
0.030942 0.045149 0.053741
0.038419 0.044667 0.052414
0.045747 0.045410 0.053130
0.052857 0.046574 0.054540
0.059765 0.047939 0.056273
0.066522 0.049423 0.058182
0.072979 0.050975 0.060206
0.079198 0.052564 0.062297
0.085177 0.054175 0.064423
0.091025 0.055803 0.066568
0.096797 0.057437 0.068711
0.102596 0.059108 0.070854
0.108461 0.060787 0.072989
0.114397 0.062475 0.075118
0.120638 0.064167 0.077228
0.126903 0.065864 0.079292
0.039902 0.059551 0.066838
0.046836 0.058875 0.065277
0.053762 0.059286 0.065506
0.060575 0.060166 0.066495
0.067242 0.061287 0.067860
0.073644 0.062560 0.069451
0.079796 0.063919 0.071187
0.085736 0.065350 0.073026
0.091559 0.066819 0.074918
0.097321 0.068321 0.076858
0.103108 0.069847 0.078803
0.109019 0.071393 0.080747
0.114963 0.072959 0.082699
0.121284 0.074546 0.084647
0.127653 0.076139 0.086593
0.134531 0.077766 0.088533
0.048163 0.073009 0.079009
0.054784 0.072256 0.077390
0.061452 0.072462 0.077300
0.068007 0.073115 0.077937
0.074344 0.074038 0.078991
0.080425 0.075117 0.080297
0.086322 0.076310 0.081777
0.092109 0.077582 0.083373
0.097882 0.078905 0.085054
0.103655 0.080268 0.086790
0.109606 0.081671 0.088560
0.115566 0.083098 0.090360
0.121986 0.084569 0.092176
0.128458 0.086058 0.094004
0.135421 0.087576 0.095829
0.142327 0.089119 0.097675
0.056103 0.085602 0.090441
0.062538 0.084835 0.088784
0.068928 0.084885 0.088468
0.075166 0.085375 0.088860
0.081148 0.086116 0.089672
0.086992 0.087041 0.090767
0.092745 0.088097 0.092054
0.098493 0.089234 0.093466
0.104259 0.090451 0.094977
0.110230 0.091724 0.096552
0.116236 0.093038 0.098205
0.122705 0.094410 0.099911
0.129278 0.095809 0.101648
0.136290 0.097248 0.103400
0.143273 0.098733 0.105171
0.150229 0.100287 0.106958
0.063817 0.097677 0.101583
0.069973 0.096865 0.099857
0.076068 0.096808 0.099364
0.081932 0.097180 0.099571
0.087696 0.097818 0.100211
0.093379 0.098643 0.101143
0.099114 0.099607 0.102275
0.104827 0.100670 0.103562
0.110835 0.101831 0.104958
0.116900 0.103044 0.106430
0.123379 0.104317 0.107977
0.130061 0.105658 0.109649
0.137125 0.107040 0.111348
0.144181 0.108485 0.113095
0.151200 0.110031 0.114857
0.157857 0.111646 0.116659
0.071007 0.109681 0.112830
0.076911 0.108825 0.111009
0.082643 0.108680 0.110363
0.088318 0.108965 0.110415
0.093929 0.109515 0.110901
0.099632 0.110274 0.111705
0.105332 0.111184 0.112741
0.111348 0.112223 0.113938
0.117463 0.113351 0.115261
0.123962 0.114574 0.116684
0.130751 0.115873 0.118182
0.137875 0.117231 0.119840
0.144997 0.118679 0.121572
0.152074 0.120209 0.123365
0.158720 0.121880 0.125211
0.165182 0.123605 0.127103
0.077580 0.121986 0.124621
0.083180 0.121088 0.122666
0.088759 0.120866 0.121844
0.094291 0.121071 0.121741
0.099968 0.121571 0.122105
0.105672 0.122296 0.122816
0.111663 0.123210 0.123785
0.117850 0.124254 0.124942
0.124351 0.125414 0.126241
0.131263 0.126692 0.127664
0.138440 0.128054 0.129167
0.145613 0.129533 0.130798
0.152771 0.131073 0.132617
0.159415 0.132784 0.134514
0.165911 0.134609 0.136499
0.172536 0.136506 0.138525
0.083760 0.134719 0.137310
0.089136 0.133834 0.135171
0.094547 0.133596 0.134183
0.100102 0.133812 0.133931
0.105768 0.134337 0.134203
0.111712 0.135087 0.134838
0.117961 0.136030 0.135762
0.124488 0.137126 0.136901
0.131520 0.138384 0.138206
0.138736 0.139732 0.139652
0.146001 0.141248 0.141226
0.153224 0.142847 0.142910
0.159888 0.144569 0.144716
0.166467 0.146400 0.146654
0.173163 0.148301 0.148647
0.179836 0.150280 0.150725
0.090160 0.147660 0.150843
0.095336 0.146843 0.148593
0.100556 0.146746 0.147487
0.105972 0.147071 0.147115
0.111573 0.147739 0.147290
0.117832 0.148534 0.147825
0.124375 0.149483 0.148659
0.131589 0.150643 0.149739
0.138880 0.151934 0.151010
0.146232 0.153377 0.152425
0.153557 0.154974 0.154013
0.160242 0.156664 0.155693
0.166924 0.158446 0.157503
0.173724 0.160291 0.159377
0.180536 0.162171 0.161315
0.187914 0.164096 0.163286
0.096473 0.160482 0.164608
0.101540 0.159842 0.162414
0.106677 0.159928 0.161267
0.111817 0.160424 0.160790
0.117921 0.161142 0.160865
0.124146 0.162030 0.161301
0.131576 0.163005 0.162032
0.138992 0.164111 0.163009
0.146477 0.165448 0.164188
0.153812 0.166894 0.165537
0.160616 0.168505 0.167040
0.167391 0.170159 0.168627
0.174299 0.171940 0.170340
0.181283 0.173715 0.172102
0.188743 0.175589 0.173966
0.196289 0.177474 0.175894
0.102657 0.173472 0.178443
0.107627 0.173074 0.176246
0.112614 0.173225 0.175012
0.118139 0.173887 0.174463
0.123893 0.174792 0.174438
0.131457 0.175566 0.174777
0.138962 0.176528 0.175424
0.146547 0.177718 0.176318
0.153896 0.179008 0.177398
0.160777 0.180488 0.178676
0.167676 0.182067 0.180108
0.174673 0.183720 0.181649
0.181822 0.185453 0.183298
0.189395 0.187202 0.184998
0.197168 0.189079 0.186810
0.205514 0.190939 0.188630
0.108715 0.187246 0.192454
0.113617 0.186877 0.190219
0.118676 0.187211 0.188885
0.124289 0.187892 0.188261
0.131190 0.188661 0.188123
0.138373 0.189591 0.188390
0.146128 0.190548 0.188933
0.153544 0.191717 0.189764
0.160508 0.193051 0.190809
0.167517 0.194528 0.192049
0.174598 0.196091 0.193415
0.181956 0.197771 0.194931
0.189664 0.199487 0.196515
0.197693 0.201259 0.198192
0.206253 0.203108 0.199969
0.214952 0.205004 0.201768
0.114666 0.201790 0.206901
0.119437 0.201553 0.204534
0.124657 0.201903 0.203109
0.130415 0.202686 0.202422
0.137245 0.203456 0.202180
0.145007 0.204260 0.202366
0.152384 0.205240 0.202831
0.159454 0.206451 0.203591
0.166622 0.207787 0.204567
0.173849 0.209287 0.205763
0.181441 0.210867 0.207085
0.189419 0.212592 0.208570
0.197752 0.214328 0.210134
0.206507 0.216176 0.211824
0.215532 0.218031 0.213584
0.224920 0.219915 0.215404
0.120503 0.217166 0.221817
0.125323 0.217020 0.219332
0.130302 0.217524 0.217889
0.136367 0.218157 0.217061
0.142917 0.219042 0.216773
0.150016 0.219860 0.216835
0.157288 0.220853 0.217274
0.164687 0.222041 0.217955
0.172097 0.223394 0.218863
0.180114 0.224974 0.219994
0.188357 0.226596 0.221237
0.197118 0.228359 0.222703
0.206142 0.230129 0.224250
0.215536 0.232008 0.225951
0.225252 0.233885 0.227691
0.235191 0.235844 0.229538
0.009130 0.009055 0.030309
0.021274 0.012338 0.033703
0.030547 0.015208 0.036832
0.038796 0.017827 0.039767
0.046455 0.020285 0.042570
0.053754 0.022630 0.045280
0.060786 0.024886 0.047902
0.067588 0.027072 0.050480
0.074088 0.029201 0.053006
0.080305 0.031282 0.055486
0.086320 0.033316 0.057929
0.092196 0.035314 0.060364
0.098010 0.037279 0.062764
0.103814 0.039217 0.065126
0.109735 0.041141 0.067459
0.115657 0.043046 0.069745
0.024406 0.032492 0.051816
0.032688 0.032414 0.050821
0.040506 0.033603 0.051989
0.047923 0.035122 0.053733
0.055064 0.036777 0.055712
0.062003 0.038495 0.057803
0.068701 0.040253 0.059976
0.075131 0.042019 0.062177
0.081274 0.043786 0.064392
0.087228 0.045552 0.066612
0.093064 0.047311 0.068813
0.098868 0.049073 0.071003
0.104634 0.050842 0.073184
0.110588 0.052608 0.075346
0.116560 0.054368 0.077492
0.122867 0.056132 0.079587
0.034707 0.048773 0.066482
0.042006 0.048188 0.064846
0.049175 0.048798 0.065228
0.056157 0.049853 0.066357
0.063011 0.051137 0.067850
0.069623 0.052543 0.069538
0.075993 0.054026 0.071353
0.082058 0.055554 0.073248
0.087979 0.057107 0.075186
0.093762 0.058702 0.077169
0.099561 0.060330 0.079143
0.105308 0.061965 0.081121
0.111295 0.063619 0.083100
0.117335 0.065282 0.085079
0.123662 0.066961 0.087052
0.130185 0.068637 0.089006
0.043638 0.063283 0.079365
0.050438 0.062501 0.077562
0.057216 0.062791 0.077494
0.063955 0.063565 0.078186
0.070458 0.064599 0.079293
0.076755 0.065782 0.080645
0.082749 0.067073 0.082160
0.088619 0.068440 0.083798
0.094379 0.069848 0.085507
0.100179 0.071311 0.087273
0.105950 0.072786 0.089070
0.111952 0.074305 0.090893
0.118053 0.075835 0.092727
0.124422 0.077403 0.094576
0.131078 0.078975 0.096411
0.137941 0.080542 0.098282
0.051904 0.076739 0.091202
0.058399 0.075887 0.089325
0.064963 0.075974 0.088963
0.071343 0.076543 0.089366
0.077540 0.077370 0.090192
0.083473 0.078361 0.091308
0.089303 0.079479 0.092615
0.095022 0.080677 0.094051
0.100819 0.081948 0.095581
0.106632 0.083261 0.097177
0.112630 0.084619 0.098857
0.118819 0.086023 0.100581
0.125210 0.087449 0.102317
0.131992 0.088921 0.104082
0.138946 0.090412 0.105858
0.145867 0.091958 0.107671
0.059845 0.089278 0.102604
0.066153 0.088409 0.100661
0.072359 0.088373 0.100097
0.078419 0.088769 0.100272
0.084276 0.089437 0.100901
0.090035 0.090295 0.101836
0.095714 0.091281 0.102979
0.101497 0.092371 0.104270
0.107328 0.093535 0.105672
0.113331 0.094766 0.107159
0.119589 0.096047 0.108766
0.126008 0.097375 0.110438
0.132930 0.098772 0.112152
0.139918 0.100211 0.113888
0.146911 0.101722 0.115666
0.153827 0.103256 0.117455
0.067437 0.101422 0.114059
0.073426 0.100529 0.112029
0.079317 0.100382 0.111288
0.085067 0.100666 0.111288
0.090745 0.101216 0.111748
0.096392 0.101973 0.112547
0.102127 0.102882 0.113574
0.107980 0.103900 0.114769
0.113959 0.105004 0.116084
0.120303 0.106190 0.117504
0.126749 0.107435 0.119072
0.133785 0.108769 0.120750
0.140825 0.110184 0.122487
0.147870 0.111688 0.124268
0.154801 0.113241 0.126103
0.161264 0.114871 0.127979
0.074416 0.113567 0.126017
0.080107 0.112638 0.123849
0.085741 0.112403 0.122930
0.091341 0.112605 0.122771
0.096950 0.113100 0.123119
0.102630 0.113793 0.123806
0.108494 0.114651 0.124743
0.114460 0.115637 0.125888
0.120883 0.116739 0.127180
0.127340 0.117899 0.128573
0.134505 0.119187 0.130088
0.141594 0.120612 0.131824
0.148714 0.122142 0.133627
0.155643 0.123746 0.135518
0.162133 0.125442 0.137476
0.168629 0.127181 0.139478
0.080708 0.126079 0.138882
0.086201 0.125116 0.136531
0.091691 0.124818 0.135419
0.097257 0.124974 0.135112
0.102872 0.125435 0.135328
0.108771 0.126114 0.135931
0.114708 0.126973 0.136828
0.121214 0.128002 0.137951
0.127800 0.129132 0.139238
0.135015 0.130404 0.140679
0.142180 0.131802 0.142223
0.149347 0.133368 0.143908
0.156258 0.135030 0.145737
0.162787 0.136797 0.147644
0.169350 0.138633 0.149623
0.175986 0.140542 0.151663
0.087111 0.139002 0.152438
0.092344 0.138069 0.150000
0.097658 0.137843 0.148756
0.102990 0.138064 0.148307
0.108799 0.138582 0.148416
0.114670 0.139327 0.148925
0.121220 0.140241 0.149727
0.127931 0.141329 0.150796
0.135194 0.142565 0.152023
0.142444 0.143954 0.153435
0.149691 0.145469 0.154976
0.156624 0.147112 0.156646
0.163227 0.148863 0.158411
0.169902 0.150709 0.160254
0.176589 0.152606 0.162153
0.183587 0.154577 0.164131
0.093537 0.152089 0.166103
0.098627 0.151297 0.163699
0.103769 0.151157 0.162430
0.109048 0.151577 0.161886
0.114638 0.152253 0.161889
0.121067 0.153052 0.162293
0.127857 0.154046 0.162998
0.135188 0.155169 0.163938
0.142532 0.156446 0.165056
0.149894 0.157918 0.166406
0.156865 0.159452 0.167865
0.163574 0.161098 0.169455
0.170358 0.162848 0.171158
0.177153 0.164659 0.172951
0.184313 0.166480 0.174780
0.191696 0.168399 0.176722
0.099805 0.165050 0.179916
0.104798 0.164426 0.177525
0.109830 0.164536 0.176181
0.115192 0.165051 0.175556
0.120939 0.165861 0.175464
0.127681 0.166715 0.175753
0.135180 0.167637 0.176370
0.142663 0.168759 0.177232
0.150119 0.170059 0.178310
0.157104 0.171501 0.179544
0.163886 0.173097 0.180971
0.170756 0.174726 0.182484
0.177645 0.176469 0.184149
0.184998 0.178208 0.185830
0.192504 0.180023 0.187611
0.200580 0.181865 0.189512
0.105950 0.178377 0.194022
0.110838 0.177929 0.191577
0.115915 0.178179 0.190147
0.121092 0.178867 0.189404
0.127770 0.179606 0.189232
0.134902 0.180415 0.189412
0.142473 0.181408 0.189957
0.150056 0.182501 0.190749
0.157063 0.183827 0.191786
0.163925 0.185226 0.192978
0.170913 0.186800 0.194346
0.177882 0.188457 0.195846
0.185459 0.190185 0.197445
0.193070 0.191950 0.199124
0.201386 0.193762 0.200886
0.209808 0.195591 0.202695
0.111966 0.192410 0.208565
0.116783 0.192182 0.206047
0.121637 0.192497 0.204500
0.127635 0.193177 0.203680
0.133731 0.194097 0.203373
0.141602 0.194806 0.203514
0.149420 0.195654 0.203950
0.156433 0.196825 0.204720
0.163380 0.198072 0.205670
0.170538 0.199493 0.206824
0.177659 0.201040 0.208164
0.185459 0.202711 0.209606
0.193259 0.204503 0.211208
0.201825 0.206256 0.212849
0.210473 0.208133 0.214626
0.219679 0.209988 0.216431
0.117870 0.207387 0.223688
0.122637 0.207127 0.221062
0.127805 0.207540 0.219347
0.133343 0.208321 0.218426
0.140471 0.208942 0.218026
0.147590 0.209844 0.218091
0.154796 0.210769 0.218485
0.161988 0.211881 0.219142
0.169338 0.213191 0.220039
0.176752 0.214647 0.221178
0.184834 0.216198 0.222454
0.192996 0.217880 0.223914
0.201844 0.219632 0.225450
0.210673 0.221451 0.227109
0.220209 0.223353 0.228881
0.229711 0.225245 0.230695
0.123687 0.223205 0.239330
0.128342 0.223078 0.236524
0.133306 0.223447 0.234754
0.138867 0.224179 0.233774
0.144975 0.224967 0.233281
0.152049 0.225774 0.233290
0.159226 0.226707 0.233559
0.166789 0.227918 0.234200
0.174570 0.229224 0.235028
0.183083 0.230768 0.236116
0.191746 0.232318 0.237306
0.201016 0.234008 0.238728
0.210358 0.235711 0.240262
0.220239 0.237614 0.241961
0.230070 0.239526 0.243713
0.240506 0.241575 0.245569
0.012356 0.012251 0.041075
0.024055 0.015284 0.044196
0.033223 0.018038 0.047168
0.041418 0.020582 0.049991
0.049054 0.022982 0.052697
0.056316 0.025276 0.055309
0.063356 0.027496 0.057847
0.070089 0.029651 0.060363
0.076563 0.031753 0.062829
0.082701 0.033804 0.065254
0.088684 0.035814 0.067637
0.094535 0.037789 0.069978
0.100387 0.039742 0.072276
0.106220 0.041673 0.074553
0.112210 0.043583 0.076793
0.118309 0.045475 0.078976
0.027561 0.035481 0.062848
0.035736 0.035429 0.061817
0.043454 0.036539 0.062801
0.050810 0.037987 0.064379
0.057884 0.039587 0.066213
0.064792 0.041267 0.068177
0.071394 0.042973 0.070196
0.077744 0.044703 0.072264
0.083804 0.046439 0.074352
0.089734 0.048172 0.076452
0.095517 0.049919 0.078532
0.101359 0.051672 0.080595
0.107200 0.053419 0.082646
0.113176 0.055167 0.084693
0.119335 0.056911 0.086725
0.125625 0.058660 0.088747
0.037959 0.051956 0.077681
0.045162 0.051341 0.075954
0.052253 0.051875 0.076132
0.059174 0.052857 0.077066
0.065953 0.054074 0.078357
0.072455 0.055428 0.079873
0.078707 0.056860 0.081519
0.084700 0.058353 0.083259
0.090560 0.059902 0.085068
0.096331 0.061475 0.086908
0.102134 0.063069 0.088768
0.108001 0.064678 0.090652
0.113951 0.066307 0.092543
0.120205 0.067955 0.094440
0.126515 0.069601 0.096331
0.133338 0.071264 0.098251
0.046914 0.066581 0.090414
0.053650 0.065761 0.088478
0.060380 0.065980 0.088221
0.067017 0.066681 0.088735
0.073401 0.067652 0.089682
0.079549 0.068784 0.090900
0.085481 0.070020 0.092289
0.091299 0.071334 0.093795
0.097045 0.072695 0.095376
0.102838 0.074118 0.097041
0.108741 0.075579 0.098782
0.114701 0.077068 0.100558
0.121041 0.078570 0.102330
0.127425 0.080092 0.104148
0.134342 0.081636 0.105950
0.141219 0.083198 0.107812
0.055238 0.080027 0.102363
0.061690 0.079146 0.100295
0.068133 0.079175 0.099762
0.074395 0.079655 0.099990
0.080435 0.080426 0.100695
0.086296 0.081359 0.101691
0.092053 0.082416 0.102874
0.097806 0.083579 0.104226
0.103567 0.084803 0.105671
0.109512 0.086092 0.107213
0.115476 0.087416 0.108867
0.121906 0.088800 0.110575
0.128392 0.090207 0.112316
0.135370 0.091661 0.114079
0.142314 0.093149 0.115866
0.149265 0.094675 0.117681
0.063209 0.092604 0.114169
0.069376 0.091696 0.111994
0.075479 0.091581 0.111228
0.081371 0.091924 0.111259
0.087143 0.092530 0.111755
0.092840 0.093333 0.112581
0.098565 0.094274 0.113648
0.104295 0.095319 0.114879
0.110274 0.096449 0.116236
0.116289 0.097642 0.117686
0.122744 0.098918 0.119318
0.129328 0.100249 0.121019
0.136374 0.101637 0.122760
0.143391 0.103077 0.124558
0.150371 0.104570 0.126399
0.157038 0.106116 0.128283
0.070649 0.104841 0.126379
0.076541 0.103888 0.124047
0.082264 0.103676 0.123074
0.087938 0.103902 0.122915
0.093553 0.104408 0.123275
0.099254 0.105120 0.123981
0.104933 0.105977 0.124959
0.110940 0.106960 0.126119
0.117029 0.108031 0.127438
0.123495 0.109237 0.128860
0.130208 0.110518 0.130464
0.137286 0.111866 0.132196
0.144362 0.113301 0.134019
0.151391 0.114790 0.135903
0.158056 0.116363 0.137850
0.164483 0.117970 0.139847
0.077418 0.117163 0.139423
0.082998 0.116175 0.136910
0.088567 0.115888 0.135746
0.094093 0.116026 0.135406
0.099762 0.116453 0.135619
0.105451 0.117101 0.136222
0.111441 0.117937 0.137136
0.117581 0.118905 0.138266
